app/img/photos/serv-2.svg

<svg width="59" height="59" viewBox="0 0 59 59" fill="none" xmlns="http://www.w3.org/2000/svg">
<path d="M57.8026 44.7866C58.5755 43.9579 59 42.8825 59 41.7459V6.14883C59 3.64789 56.9654 1.61328 54.4644 1.61328H6.82224C6.81188 1.61328 6.80108 1.61328 6.79073 1.61373C2.91732 1.62363 0 3.42597 0 5.81393V53.3783C0 55.7725 2.93262 57.5785 6.82178 57.5785C10.7114 57.5785 13.6449 55.7725 13.6449 53.3783V52.7287H48.1756C48.8058 52.7287 49.427 52.5923 49.996 52.338C50.0162 52.3299 50.036 52.3214 50.0554 52.3124C50.5136 52.0994 50.9277 51.8145 51.2869 51.4643C51.2878 51.4634 51.2887 51.4625 51.2896 51.4621C51.3014 51.4503 51.3126 51.4391 51.3243 51.4274C51.3261 51.426 51.3279 51.4242 51.3297 51.4224C51.3428 51.4094 51.3554 51.3963 51.368 51.3833L57.7324 44.8604C57.745 44.8473 57.7572 44.8343 57.7698 44.8217C57.772 44.819 57.7743 44.8167 57.7765 44.8145C57.7851 44.805 57.7941 44.796 57.8026 44.7866ZM6.82178 3.91842C8.33334 3.91842 9.5622 4.27177 10.3544 4.71516C10.9855 5.06896 11.3398 5.47948 11.3398 5.81438V5.82609C11.3209 6.58141 9.52349 7.7108 6.82178 7.7108C4.10658 7.7108 2.30469 6.56926 2.30469 5.81393C2.30469 5.05951 4.10658 3.91842 6.82178 3.91842ZM13.6449 50.424V28.3364C13.6449 28.1676 13.6085 28.0069 13.5432 27.8624C13.3622 27.4622 12.9598 27.1836 12.4921 27.1836C11.8561 27.1836 11.3398 27.6999 11.3398 28.336V51.5764C11.3398 51.5822 11.3402 51.5881 11.3402 51.5939V53.3783C11.3402 54.1331 9.5379 55.2738 6.82178 55.2738C4.10658 55.2738 2.30469 54.1331 2.30469 53.3783V9.01439C3.49079 9.64368 5.05816 10.0155 6.82178 10.0155C8.58631 10.0155 10.1537 9.64368 11.3398 9.01439V19.1172C11.3398 19.2865 11.3762 19.4472 11.442 19.5916C11.6225 19.9918 12.0249 20.27 12.4926 20.27C13.1291 20.27 13.6449 19.7541 13.6449 19.1177V5.81393C13.6449 5.12343 13.4009 4.48154 12.9603 3.91797H54.4644C55.6947 3.91797 56.6953 4.91862 56.6953 6.14883V41.7459C56.6953 41.8112 56.6926 41.8755 56.6868 41.9399H52.4226C50.2143 41.9399 48.4173 43.7364 48.4173 45.9448V50.4105C48.3377 50.4195 48.2566 50.424 48.1756 50.424H13.6449ZM54.3353 45.0418L50.722 48.745V45.9448C50.722 45.0071 51.485 44.2441 52.4226 44.2441H55.1135L54.3353 45.0418Z" fill="white"/>
<path d="M29.3354 10.882C27.5448 10.5876 26.144 9.18631 25.8496 7.39613C25.7497 6.78844 25.2298 6.34686 24.614 6.34686C23.9982 6.34686 23.4783 6.78844 23.3784 7.39613C23.0835 9.18676 21.6827 10.5876 19.8921 10.8824C19.2844 10.9823 18.8433 11.5018 18.8433 12.1176C18.8433 12.7338 19.2844 13.2533 19.8921 13.3532C21.6827 13.648 23.0835 15.0489 23.3784 16.8399C23.4787 17.4476 23.9982 17.8883 24.614 17.8883H24.6144C25.2302 17.8883 25.7497 17.4472 25.8496 16.8395C26.144 15.0489 27.5453 13.648 29.3354 13.3532C29.9436 13.2533 30.3847 12.7338 30.3847 12.1176C30.3847 11.5018 29.9436 10.9819 29.3354 10.882ZM24.614 13.8587C24.1494 13.1736 23.558 12.5826 22.8729 12.1176C23.558 11.653 24.1494 11.0616 24.614 10.3765C25.0785 11.0616 25.67 11.653 26.3551 12.1176C25.67 12.5821 25.0785 13.1736 24.614 13.8587Z" fill="white"/>
<path d="M29.3354 25.9354C27.5448 25.641 26.144 24.2397 25.8496 22.4495C25.7497 21.8414 25.2298 21.4003 24.614 21.4003C23.9982 21.4003 23.4783 21.8414 23.3784 22.4495C23.0835 24.2397 21.6827 25.641 19.8921 25.9354C19.2844 26.0358 18.8433 26.5552 18.8433 27.171C18.8433 27.7872 19.2844 28.3067 19.8921 28.4066C21.6827 28.7014 23.0835 30.1023 23.3784 31.8933C23.4787 32.501 23.9982 32.9417 24.614 32.9417H24.6144C25.2298 32.9417 25.7497 32.5006 25.8496 31.8929C26.144 30.1023 27.5453 28.7014 29.3354 28.4066C29.9436 28.3067 30.3847 27.7872 30.3847 27.171C30.3847 26.5552 29.9436 26.0353 29.3354 25.9354ZM24.614 28.9121C24.1494 28.227 23.558 27.6355 22.8729 27.171C23.558 26.7065 24.1494 26.115 24.614 25.4299C25.0785 26.115 25.67 26.7065 26.3551 27.171C25.67 27.6355 25.0785 28.227 24.614 28.9121Z" fill="white"/>
<path d="M29.3354 40.9888C27.5448 40.6939 26.144 39.2931 25.8496 37.5025C25.7497 36.8948 25.2298 36.4537 24.614 36.4537C23.9982 36.4537 23.4783 36.8948 23.3784 37.5025C23.0835 39.2931 21.6827 40.6944 19.8921 40.9888C19.2844 41.0887 18.8433 41.6086 18.8433 42.2244C18.8433 42.8402 19.2844 43.3601 19.8921 43.46C21.6827 43.7544 23.0835 45.1557 23.3784 46.9468C23.4787 47.5544 23.9982 47.9951 24.614 47.9951H24.6144C25.2298 47.9947 25.7497 47.554 25.8496 46.9463C26.144 45.1557 27.5453 43.7544 29.3354 43.46C29.9436 43.3601 30.3847 42.8402 30.3847 42.2244C30.3847 41.6086 29.9436 41.0887 29.3354 40.9888ZM24.614 43.9655C24.1494 43.2804 23.558 42.6889 22.8729 42.2244C23.558 41.7599 24.1494 41.1684 24.614 40.4833C25.0785 41.1684 25.67 41.7599 26.3551 42.2244C25.67 42.6889 25.0785 43.2804 24.614 43.9655Z" fill="white"/>
<path d="M37.7378 13.3532C39.5284 13.648 40.9292 15.0489 41.2241 16.8395C41.324 17.4472 41.8435 17.8883 42.4597 17.8883C43.0755 17.8883 43.5949 17.4472 43.6949 16.8395C43.9897 15.0489 45.3905 13.648 47.1811 13.3532C47.7888 13.2533 48.23 12.7338 48.23 12.1176C48.23 11.5018 47.7888 10.9819 47.1811 10.882C45.3905 10.5876 43.9897 9.18631 43.6949 7.39613C43.5949 6.78844 43.0755 6.34686 42.4592 6.34686C41.8435 6.34686 41.3235 6.78844 41.2236 7.39613C40.9292 9.18676 39.528 10.5876 37.7378 10.8824C37.1301 10.9823 36.689 11.5018 36.689 12.118C36.689 12.7338 37.1301 13.2533 37.7378 13.3532ZM42.4597 10.3765C42.9242 11.0616 43.5157 11.653 44.2004 12.1176C43.5157 12.5821 42.9242 13.1736 42.4597 13.8587C41.9947 13.1736 41.4037 12.5826 40.7186 12.1176C41.4037 11.653 41.9951 11.0616 42.4597 10.3765Z" fill="white"/>
<path d="M47.1811 25.9354C45.3905 25.641 43.9897 24.2397 43.6949 22.4495C43.5949 21.8414 43.0755 21.4003 42.4597 21.4003C41.8435 21.4003 41.324 21.8414 41.2241 22.4495C40.9292 24.2397 39.5284 25.641 37.7378 25.9354C37.1301 26.0358 36.689 26.5552 36.689 27.171C36.689 27.7872 37.1301 28.3067 37.7378 28.4066C39.5284 28.7014 40.9292 30.1023 41.2241 31.8929C41.324 32.5006 41.8435 32.9417 42.4597 32.9417C43.0755 32.9417 43.5949 32.5006 43.6949 31.8929C43.9897 30.1023 45.3905 28.7014 47.1811 28.4071C47.7888 28.3071 48.23 27.7872 48.23 27.1714C48.23 26.5552 47.7888 26.0353 47.1811 25.9354ZM42.4597 28.9121C41.9947 28.227 41.4037 27.6355 40.7186 27.171C41.4037 26.7065 41.9947 26.115 42.4597 25.4299C42.9242 26.115 43.5157 26.7065 44.2004 27.171C43.5157 27.6355 42.9242 28.227 42.4597 28.9121Z" fill="white"/>
<path d="M47.1811 40.9888C45.3905 40.6939 43.9897 39.2931 43.6949 37.5025C43.5949 36.8948 43.0755 36.4537 42.4597 36.4537C41.8435 36.4537 41.324 36.8948 41.2241 37.5025C40.9292 39.2931 39.5284 40.6944 37.7378 40.9888C37.1301 41.0887 36.689 41.6086 36.689 42.2244C36.689 42.8406 37.1301 43.3601 37.7378 43.46C39.5284 43.7549 40.9292 45.1557 41.2241 46.9463C41.324 47.554 41.8435 47.9951 42.4597 47.9951C43.0755 47.9951 43.5949 47.554 43.6949 46.9463C43.9897 45.1557 45.3905 43.7549 47.1811 43.46C47.7888 43.3601 48.23 42.8406 48.23 42.2248C48.23 41.6086 47.7888 41.0887 47.1811 40.9888ZM42.4597 43.9655C41.9947 43.2804 41.4037 42.6889 40.7186 42.2244C41.4037 41.7599 41.9947 41.1684 42.4597 40.4833C42.9242 41.1684 43.5157 41.7599 44.2004 42.2244C43.5157 42.6889 42.9242 43.2804 42.4597 43.9655Z" fill="white"/>
<path d="M12.4922 22.5756C11.8561 22.5756 11.3398 23.0932 11.3398 23.7297C11.3398 24.3662 11.8561 24.882 12.4922 24.882C13.1287 24.882 13.6445 24.3662 13.6445 23.7297V23.7266C13.6445 23.0901 13.1287 22.5756 12.4922 22.5756Z" fill="white"/>
</svg>

<svg width="59" height="59" viewBox="0 0 59 59" fill="none" xmlns="http://www.w3.org/2000/svg"><path d="M57.803 44.787A4.435 4.435 0 0 0 59 41.746V6.149a4.54 4.54 0 0 0-4.536-4.536H6.791C2.917 1.624 0 3.427 0 5.814v47.565c0 2.395 2.933 4.2 6.822 4.2 3.89 0 6.823-1.806 6.823-4.2v-.65h34.53a4.468 4.468 0 0 0 1.88-.416 4.438 4.438 0 0 0 1.235-.85l.034-.035.006-.005.038-.039 6.364-6.523.038-.038a.095.095 0 0 1 .006-.008l.027-.027zM6.822 3.918c1.511 0 2.74.354 3.532.797.632.354.986.764.986 1.1v.011c-.02.755-1.817 1.885-4.518 1.885-2.715 0-4.517-1.142-4.517-1.897 0-.754 1.802-1.896 4.517-1.896zm6.823 46.506V28.336a1.149 1.149 0 0 0-1.153-1.152c-.636 0-1.152.516-1.152 1.152v25.042c0 .755-1.802 1.896-4.518 1.896-2.715 0-4.517-1.14-4.517-1.896V9.014c1.186.63 2.753 1.002 4.517 1.002 1.764 0 3.332-.372 4.518-1.002v10.103a1.152 1.152 0 0 0 2.305 0V5.815c0-.69-.244-1.332-.685-1.896h41.504c1.23 0 2.231 1 2.231 2.23v35.598c0 .065-.002.13-.008.194h-4.264a4.01 4.01 0 0 0-4.006 4.005v4.465c-.08.01-.16.014-.241.014H13.645zm40.69-5.382l-3.613 3.703v-2.8c0-.938.763-1.7 1.7-1.7h2.692l-.779.797z" fill="#fff"/><path d="M29.335 10.882a4.226 4.226 0 0 1-3.485-3.486c-.1-.608-.62-1.05-1.236-1.05s-1.136.442-1.236 1.05a4.227 4.227 0 0 1-3.486 3.486c-.608.1-1.049.62-1.049 1.236s.441 1.135 1.05 1.235a4.227 4.227 0 0 1 3.485 3.487c.1.608.62 1.048 1.236 1.048s1.136-.44 1.236-1.049a4.227 4.227 0 0 1 3.485-3.486c.609-.1 1.05-.62 1.05-1.235 0-.616-.441-1.136-1.05-1.236zm-4.721 2.977a6.545 6.545 0 0 0-1.741-1.741 6.54 6.54 0 0 0 1.741-1.742 6.538 6.538 0 0 0 1.741 1.742 6.536 6.536 0 0 0-1.741 1.74zm4.721 12.076a4.226 4.226 0 0 1-3.485-3.485c-.1-.609-.62-1.05-1.236-1.05s-1.136.441-1.236 1.05a4.227 4.227 0 0 1-3.486 3.485c-.608.1-1.049.62-1.049 1.236s.441 1.136 1.05 1.236a4.227 4.227 0 0 1 3.485 3.486c.1.608.62 1.049 1.236 1.049s1.136-.441 1.236-1.05a4.227 4.227 0 0 1 3.485-3.485c.609-.1 1.05-.62 1.05-1.236s-.441-1.136-1.05-1.236zm-4.721 2.977a6.538 6.538 0 0 0-1.741-1.741 6.538 6.538 0 0 0 1.741-1.741 6.536 6.536 0 0 0 1.741 1.741 6.536 6.536 0 0 0-1.741 1.741zm4.721 12.077a4.226 4.226 0 0 1-3.485-3.486 1.248 1.248 0 0 0-1.236-1.05c-.616 0-1.136.442-1.236 1.05a4.227 4.227 0 0 1-3.486 3.486c-.608.1-1.049.62-1.049 1.235 0 .616.441 1.136 1.05 1.236a4.227 4.227 0 0 1 3.485 3.487c.1.607.62 1.048 1.236 1.048s1.136-.441 1.236-1.049a4.226 4.226 0 0 1 3.485-3.486c.609-.1 1.05-.62 1.05-1.236 0-.615-.441-1.135-1.05-1.235zm-4.721 2.977a6.538 6.538 0 0 0-1.741-1.742 6.538 6.538 0 0 0 1.741-1.74 6.536 6.536 0 0 0 1.741 1.74 6.536 6.536 0 0 0-1.741 1.742zm13.124-30.613a4.227 4.227 0 0 1 3.486 3.487c.1.607.62 1.048 1.236 1.048.615 0 1.135-.44 1.235-1.049a4.227 4.227 0 0 1 3.486-3.486c.608-.1 1.049-.62 1.049-1.235 0-.616-.441-1.136-1.049-1.236a4.227 4.227 0 0 1-3.486-3.486c-.1-.608-.62-1.05-1.236-1.05s-1.136.442-1.235 1.05a4.226 4.226 0 0 1-3.486 3.486c-.608.1-1.049.62-1.049 1.236s.441 1.135 1.049 1.235zm4.722-2.976a6.542 6.542 0 0 0 1.74 1.74 6.54 6.54 0 0 0-1.74 1.742 6.551 6.551 0 0 0-1.741-1.741 6.54 6.54 0 0 0 1.74-1.742zm4.721 15.558a4.227 4.227 0 0 1-3.486-3.485c-.1-.609-.62-1.05-1.235-1.05-.617 0-1.136.441-1.236 1.05a4.227 4.227 0 0 1-3.486 3.485c-.608.1-1.049.62-1.049 1.236s.441 1.136 1.049 1.236a4.227 4.227 0 0 1 3.486 3.486c.1.608.62 1.049 1.236 1.049.615 0 1.135-.441 1.235-1.05a4.226 4.226 0 0 1 3.486-3.485c.608-.1 1.049-.62 1.049-1.236s-.441-1.136-1.049-1.236zm-4.721 2.977a6.544 6.544 0 0 0-1.741-1.741 6.544 6.544 0 0 0 1.74-1.741 6.54 6.54 0 0 0 1.741 1.74 6.54 6.54 0 0 0-1.74 1.741zm4.721 12.077a4.227 4.227 0 0 1-3.486-3.486 1.247 1.247 0 0 0-1.235-1.05c-.617 0-1.136.442-1.236 1.05a4.227 4.227 0 0 1-3.486 3.486c-.608.1-1.049.62-1.049 1.235 0 .617.441 1.136 1.049 1.236a4.227 4.227 0 0 1 3.486 3.486c.1.608.62 1.05 1.236 1.05.615 0 1.135-.442 1.235-1.05a4.227 4.227 0 0 1 3.486-3.486c.608-.1 1.049-.62 1.049-1.235 0-.616-.441-1.136-1.049-1.236zm-4.721 2.977a6.544 6.544 0 0 0-1.741-1.742 6.544 6.544 0 0 0 1.74-1.74 6.54 6.54 0 0 0 1.741 1.74 6.54 6.54 0 0 0-1.74 1.742zm-29.968-21.39a1.154 1.154 0 0 0 0 2.306c.637 0 1.152-.516 1.152-1.152v-.003a1.15 1.15 0 0 0-1.152-1.151z" fill="#fff"/></svg>
